X: 16098
T: Green Forest, The
R: jig
M: 6/8
K: Gmajor
|:g|dBG GAG|GBd efg|dBG GBd|ecA ABc|
dBG DEG|DGB ABc|.d2e cAF|1 AGF G(3Bcd:|2 AGF GBd||
gdB GBd|g3 afd|gdB G(3Bcd|e2A A(3Bcd|
gfe ded|cBc ABc|d2e cAF|AGF G(3Bcd|
gdB GBd|gbg afd|gdB G(3Bcd|e2A A(3Bcd|
gfe d2e|cBc ABc|d2e cAF|AGF GBd||

